X:1
T:Grida, qual tromba
T:Giovanni Animuccia
T:Source : Secondo libro delle Laude spirituale a tre et a quattro voci---Roma---A.Gardano---1583. Editor : André Vierendeels : (25/11/17). Notes ; Original clefs : G2, C1, C3 Editorial accidentals above the staff Music compiled by Francisco Soto de Langa
T:Grida, qual tromba
T:©
T:©
C:Giovanni Animuccia
Z:©
%%score [ 1 2 3 ]
L:1/8
Q:1/4=120
M:2/2
K:F
V:1 treble nm="Soprano 1" snm="S 1"
V:2 treble nm="Soprano 2" snm="S 2"
V:3 treble-8 nm="Tenor" snm="T"
V:1
"^1)" c8 | c4 c2 c2- | c2 A2 c4 | c4 z2 c2 | d6 d2 | f2 g4 f2 |[M:2/4] g4 :: z2 d2 | %8
w: Gri-|da, qual trom-|* ba, gri-|da che|fai, gri-|da piu for-|te,|gl'i|
w: Of-|fe- so'e'l Si-|* gnor buo-|no, deh|te- me-|te'l suo ze-|lo,|i-|
[M:2/2] e2 g2 f2 e2 | d4 c4 | z2 f2 d2 c2 | f4 c2 c2 | edef g4 | d2 G2 BABc | d4 G4 | z2 c2 c3 c | %16
w: ni- mi- ci'a le|por- te,|con fer- ro'e|fo- co, e|mi- nac- cio- se stri-|da e mi- nac- cio- se|stri- da|e mi- nac-|
w: ra- to'è Dio del|Cie- lo,|ne vuol pur|l'huo- mo, e|di- men- dar per- do-|no, e di- men- dar per|do- no,|e di- men-|
 A2 B2 G4 | F8 :| %18
w: cio- se stri-|da.|
w: dar per- do-|no.|
V:2
"^2)""^1)" A8 | A4 A2 A2- | A2 c2 A4 | A4 z2 A2 | B6 B2 | A2 G2 A4 |[M:2/4]"^#" G4 :: z2 B2 | %8
w: Gri-|da, qual trom-|* ba, gri-|da, che|fai, gri-|da piu for-|te,|gl'i|
w: Ma|for- se'a lui|_ non pia-|ce, per-|do- nar|al- tra vol-|ta,|hor|
[M:2/2] G2 c2 AB c2- | c2 =B2 c2 c2 | A2 F2 B2 A2 | z2 F2 AGAB | c4 c2 G2 | BABc d4 | d2 D2 FEFG | %15
w: ni- mi- ci'a le por-|* * te, con|fer- ro'e fo- co,|e mi- nac- cio- se|stri- da, e|mi- nac- cio- se stri-|da, e mi- nac- cio- se|
w: o- di fi- gli- 'as-|* col- ta, O|ca- sa d'Is- rael,|ver- bo- * di- *|pa- ce, ver-|bo- * di- * pa-|ce, ver- bo- * di- *|
 A3 A A2 G2 | F2 F4 E2 | F8 :| %18
w: stri- da'e mi- nac-|cio- se stri-|da.|
w: pa- ce, ver- bo|di pa- *|ce.|
V:3
"^3)""^1)""^4)" F8 | f4 f2 f2- | f2 f2 f4 | F4 z2 f2 | B6 G2 | d2 _e2 d4 |[M:2/4] G4 :: z2 G2 | %8
w: Gri-|da, qual trom-|* ba, gri-|da, che|fai, gri-|da piu for-|te,|gl'i|
w: Tu|se- gui- sti|_ la vi-|a de|fal- si'a-|man- to tuo-|i,|ma|
[M:2/2] c2 c2 d2 c2 | g4 c4 | z4 z2 f2 | d2 B2 f4 | c2 c2 edef | g4 g2 G2 | BABc d4 | d2 f2 f2 c2 | %16
w: ni- mi- ci'a le|por- te,|con|fer- ro'e fo-|co, e mi- nac- cio- se|stri- da, e|mi- nac- cio- se stri-|da, e mi- nac-|
w: s'a me tor- nar|vuo- i,|ri-|cer- ver- ti|pro- met- to hor co- me|pri- a, pro-|met- to'hor co- me pri-|a, pro- met- to'hor|
 d2 B2 c4 | F8 :| %18
w: cio- se stri-|da|
w: co- me pri-|a.|

